img/logo.svg

<svg xmlns="http://www.w3.org/2000/svg" preserveAspectRatio="xMidYMid" width="153.094" height="63.25" viewBox="0 0 153.094 63.25"><defs><style>.cls-1{fill:#fff;fill-rule:evenodd}</style></defs><path d="M153.077 52.162c-.45 6.77-5.747 11.1-12.885 11.1-6.872 0-10.002-3.162-10.002-6.1 0-1.62 1.247-2.834 2.48-3.194.18-.04.29-.055.385-.055.284 0 .445.13.53.238.21.264.142.568.053.952-.025.108-.054.233-.083.378-.18 1.02-.18 2.514.873 3.77 1.16 1.388 3.36 2.12 6.357 2.12 4.543 0 9.617-3.596 9.894-9.406.202-4.772-2.148-8.118-6.056-8.758.333.84.536 1.767.605 2.767.17 2.586-.487 4.848-1.85 6.372-1.104 1.234-2.61 1.93-4.354 2.008-1.47.073-2.66-.424-3.51-1.395-.944-1.078-1.354-2.692-1.123-4.43.436-3.403 2.66-6.05 5.887-7.092-1.645-1.313-4.024-2.08-6.81-2.184-3.242-.13-6.064.543-8.433 1.97-1.206 7.44-3.688 16.015-6.777 16.015-.638 0-1.234-.395-1.677-1.114-1.042-1.693-1.26-5.305.722-9.24 1.48-2.913 3.18-5.055 5.19-6.54.258-2.357.45-4.803.568-7.296-.987 1.26-2.156 1.97-3.352 2.005-1.003 1.397-2.294 2.164-3.655 2.164-1.18 0-2.27-.485-3.153-1.404-1.317-1.372-1.987-3.498-1.886-5.987.168-4.01 1.81-7.016 4.39-8.04.528-.216 1.05-.062 1.25.342.565-.654 1.266-1.106 2.11-1.26.733-.13 1.42.167 1.987.82 1.185 1.358 1.643 3.973 1.227 6.996-.24 1.643-.612 3.067-1.113 4.254.934-.687 1.84-2.452 2.34-4.698.015-1.497.01-2.898-.017-4.282-.03-1.054.313-1.636.606-1.94.297-.304.69-.48 1.08-.48 1.085 0 1.138.627 1.138 1.733 0 .442.007.836.015 1.314l.01.77c1.205-2.613 2.747-4.056 4.394-4.056.735 0 1.407.31 1.943.867 1.105 1.153 1.618 3.44 1.485 6.564-.28 5.663-3.5 8.247-6.567 8.247-.577 0-1.117-.003-1.635-.21-.057.678-.126 1.555-.21 2.223 2.473-1.056 5.34-1.057 8.836-.83 4.064.246 7.084 2.4 8.977 4.4h.236c2.774 0 5.26.224 7.002 2.08 1.858 1.978 2.772 4.392 2.575 7.522zm-33.224-5.17c-1.78 3.562-1.704 6.022-1.22 6.807.09.142.184.22.28.23.585-.283 2.044-3.615 3.082-10.25a15.384 15.384 0 0 0-2.142 3.213zm-4.89-17.48c-.192-1.843-.007-3.812.58-5.41-.738 1.07-1.226 2.96-1.32 5.254-.1 2.02.382 3.792 1.286 4.74.256.27.67.593 1.182.593.28 0 .57-.09.858-.256-1.382-.896-2.366-2.73-2.586-4.92zm4.22-5.27c-.054-.056-.132-.125-.203-.125-.85.245-1.915 2.415-1.79 4.94.062 1.41.556 3.194 1.727 3.914.432-.788.888-2.085 1.008-4.13.157-2.448-.274-4.1-.742-4.597zm8.07 10.7c1.83 0 3.07-2.076 3.32-5.556.21-3.24-.2-4.914-.658-5.4-.123-.132-.21-.132-.244-.132-.64 0-2.694 2.878-3.747 9.672l-.064 1.027c.345.266.794.39 1.393.39zm15.62 11.602c-.074-1.258-.414-2.38-1.012-3.342-2.665.507-4.55 2.4-4.95 5-.217 1.305-.01 2.413.584 3.127.45.54 1.088.82 1.9.836l.107.002c.77 0 1.473-.316 2.038-.916.965-1.024 1.453-2.74 1.335-4.708zm-31.248-8.428c-.046.22-.27.773-1.482.623-2.446-.264-3.577-3.233-3.452-9.076.03-1.42.153-2.6.25-3.55.092-.88.194-1.88.06-2.078-.726.038-3.545 3.81-4.575 10.633-.05 1.73-1.027 2.207-1.597 2.207-1.037 0-1.22-.442-1.22-1.688 0-1.458.015-1.995.045-3.077.02-.715.047-1.67.08-3.297.075-2.74.25-5.39.522-7.89-1.378.233-2.875.248-4.374.04-4.263-.57-5.69-3.31-5.605-5.69.104-1.51 1.426-2.372 2.288-2.587.175-.04.29-.054.39-.054.308 0 .47.16.54.254.205.284.107.582-.04 1.033l-.082.25c-.183.69-.163 1.47.065 2.18.123.274.387.66.833.66.31 0 .668-.184.984-.504.67-.68 1.062-1.828 1.047-3.075-.042-2.73-1.607-4.333-4.41-4.513a8.127 8.127 0 0 0-.54-.017c-2.527 0-5.25 1.275-5.636 4.125-.488 3.726 2.647 5.625 5.965 7.634l.374.227c3.42 2.112 7.043 4.756 6.772 9.45-.306 5.01-4.763 8.788-10.37 8.788-.694 0-1.398-.06-2.09-.18-6.885-1.187-9.05-6.53-8.814-10.744.106-1.516.587-3.64 2.284-5.177.597-.545 2.43-1.143 3.02-1.228.724-.106.91.206.987.38.187.43-.133.86-.507 1.26-1.965 1.923-2.827 3.435-3.093 5.41-.24 1.89.27 3.718 1.432 5.144 1.21 1.486 3.055 2.396 5.196 2.564 4.21.326 8.16-2.198 8.543-5.332.472-3.82-2.457-6.13-5.763-8.348l-.695-.457c-3.46-2.272-7.037-4.623-6.652-8.657.377-4.587 5.078-6.99 9.528-6.99.123 0 .244 0 .363.005 2.28.085 4.1.81 5.263 2.1 1.042 1.157 1.532 2.713 1.413 4.498-.12 2.368-1.27 4.465-2.915 5.476.28.1.578.18.89.235 1.21.227 2.46.2 3.616-.077 1.205-8.835 3.718-14.523 6.434-14.523.62 0 1.21.408 1.662 1.147 1.173 1.913 1.408 5.72-.41 9.294-1.2 2.397-2.92 4.134-5.12 5.162a62.813 62.813 0 0 0-.46 6.927c1.437-3.125 3.5-5.732 5.643-5.732.51 0 .928.172 1.242.51.892.965.773 3.11.485 6.816-.534 6.513.196 8.186.902 8.443.86.382.818.91.785 1.063zm-5.814-23.384c1.458-2.914 1.274-5.64.817-6.674-.134-.304-.258-.4-.292-.408-.545.246-2.014 3.81-2.99 10.085 1.01-.738 1.836-1.745 2.466-3.003zM76.766 29.025c-2.93 21.904-5.728 24.438-7.58 24.438-.623 0-1.175-.315-1.595-.91-1.087-1.545-1.112-4.672-.062-7.607a29.284 29.284 0 0 1 5.63-9.628l.03-.278c-.87 1.337-1.832 2.05-2.814 2.05-.987 0-2.657-.495-3.58-3.54-1.5 2.618-3.475 4.09-5.54 4.09-2.077 0-3.905-1.293-4.914-3.39-.8 1.928-1.91 3.773-3.23 3.773-1.08 0-1.912-1.273-2.296-3.415-.95 1.59-2.08 2.503-3.258 2.606a2.066 2.066 0 0 1-.17.007c-1.236 0-2.666-1.067-3.394-3.126-1.215 2.203-2.594 3.44-3.876 3.44-1.685 0-3.32-2.003-4.28-5.128-1.075 2.608-2.734 5.108-4.575 5.108-.702 0-1.423-.37-2.084-1.07-1.52-1.612-3.174-5.625-2.826-11.634.517-8.31 3.554-19.898 7.328-19.898.286 0 .7.093 1.057.54 1.293 1.628.768 7.125-.018 10.508-1.055 4.308-3.35 9.392-5.112 12.273.283 4.745 1.406 6.88 2.122 6.88.767 0 2.432-2.666 3.316-6.852a27.293 27.293 0 0 1-.058-4.036c.542-8.715 3.722-20.868 7.67-20.868.295 0 .723.096 1.09.56 1.352 1.7.8 7.46-.024 11.008-1.106 4.522-3.518 9.862-5.367 12.886.297 5.003 1.49 7.255 2.253 7.255.576 0 1.923-1.64 2.982-5.16.655-6.057 4.193-8.196 7.02-8.196 1.535 0 2.402.576 2.86 1.06.583.62.874 1.47.82 2.396-.13 1.005-1.65 1.89-2.4 2.03-.54.117-.805-.1-.896-.232-.222-.32-.095-.662.116-1.23l.05-.134c.278-.9.306-1.526.076-1.838-.162-.22-.5-.332-1.007-.332-1.654 0-3.04 2.295-3.45 5.71-.313 2.544.262 4.513.93 5.268.158.178.32.28.44.28.814 0 1.926-1.62 2.478-4.72l.025-.316c.02-.275.04-.53.102-.873.188-.976 1.313-1.418 2.28-1.418.42 0 .702.092.864.277l.15.172-.015.278c-.984 5.17-.67 7.093-.432 7.49.287-.26 1.015-1.47 1.9-4.94a13.357 13.357 0 0 1-.004-.94c.253-5.043 2.892-8.84 6.142-8.84.91 0 1.66.31 2.228.92 1.12 1.21 1.07 3.13 1.028 3.69-.132.998-1.654 1.8-2.4 1.938-.612.135-.815-.086-.904-.214-.204-.296-.088-.605.088-1.072l.085-.226c.38-1.07.557-2.458.154-3.03-.086-.122-.25-.285-.66-.285-1.27 0-2.39 2.903-2.553 6.607-.073 2.18.482 4.1 1.486 5.14.498.514 1.088.786 1.705.786 2.397 0 3.726-3.08 4.318-4.984-.144-1.94-.08-4.237.19-6.828.13-1.133 1.578-1.553 2.46-1.553.378 0 .624.08.775.254l.15.173-.017.27c-.842 6.683-.728 10.69.34 11.9.206.233.44.342.734.342.822 0 2.37-2.897 3.025-8.13.092-1.388.22-2.69.34-3.453.128-1.096 1.558-1.512 2.43-1.512.406 0 .668.092.822.288l.15.192-.045.296c.005 0-.337 3.473-.797 6.655zm-6.982 16.05c-.983 2.646-.834 4.304-.37 4.974.123.174.242.242.312.25.563-.228 1.79-3.455 2.905-11.134a35.676 35.676 0 0 0-2.847 5.91zM32.43 16.066c.98-3.774.93-6.968.64-7.847-1.034 1.39-3.09 9.68-3.45 15.846 1.15-2.63 2.255-5.748 2.81-7.998zm8.938-1.017c1.052-4.048.977-7.435.656-8.3-1.088 1.36-3.303 10.257-3.662 16.827 1.226-2.79 2.415-6.13 3.006-8.527zm-31.23 2.625a25.24 25.24 0 0 0-1.078 4.794c-.58 4.72.25 8.865 2.215 11.088 1.08 1.222 2.454 1.84 4.082 1.842.092 0 .184-.002.277-.007 4.15-.203 5.55-4.45 6.016-6.964l.132-2.548c.078-2.123 1.386-2.288 1.785-2.288.317 0 1.22.134 1.22.727C24.33 30.905 23.67 36.034 22.763 40c4.964.347 11.007 1.306 16.306 2.208 4.402.743 9.413 1.5 13.18 1.5 3.222 0 5.158-.546 5.754-1.622.12-.204.192-.358.244-.473.104-.223.26-.562.663-.562.247 0 .434.14.67.32.848.584 1.428 1.598 1.466 2.57.023.595-.137 1.458-1.03 2.182-.893.747-2.355 1.113-4.465 1.113-3.668 0-8.713-1.074-14.054-2.21-.98-.21-1.964-.42-2.94-.62-6.47-1.323-11.96-2.098-16.324-2.307-1.58 5.356-3.827 8.125-7.048 8.7-.32.054-.644.08-.968.08-2.1 0-4.15-1.085-5.22-2.765-.86-1.355-.96-2.905-.28-4.364 1.184-2.63 4.5-3.857 10.43-3.857.347 0 .7.004 1.063.012.326-1.413.597-2.994.822-4.79-1.558 1.618-3.54 2.52-5.82 2.626l-.3.006c-2.537 0-4.752-.975-6.41-2.82-2.417-2.696-3.494-7.092-2.955-12.06.217-1.998.628-3.846 1.224-5.507-2.487-.592-4.53-1.868-5.664-3.55C.102 12.32-.207 10.565.188 8.59 1.5 2.025 9.924-.013 12.844-.013c.518 0 .895.056 1.15.17.38.18 1.36.647 1.196 1.368-.093.413-.528.66-1.163.66-.312 0-.642-.062-.93-.17-.043-.018-.213-.07-.625-.07-2.142 0-8.658 1.6-9.576 6.506-.635 3.35 1.87 5.823 4.78 6.646 2.574-5.46 7.165-9.343 11.79-9.94 2.232-.3 4.05.296 4.95 1.636.715 1.068.786 2.507.194 3.95-1.536 3.77-7.85 6.777-14.472 6.93zm2.164 26.41c-.634 1.046-.72 2.145-.23 3.01.456.813 1.327 1.297 2.33 1.297.36 0 .727-.064 1.09-.19 1.72-.617 3.122-2.672 4.163-6.114-5.088.084-6.812 1.12-7.353 1.998zM21.157 8.13c-.33-.512-.997-.618-1.497-.618a4.74 4.74 0 0 0-.836.08c-2.767.528-5.836 3.617-7.79 7.786 3.953-.313 8.694-2.295 10.003-5.04.4-.896.446-1.706.12-2.21z" class="cls-1"/></svg>

<svg xmlns="http://www.w3.org/2000/svg" xmlns:xlink="http://www.w3.org/1999/xlink" preserveAspectRatio="xMidYMid" width="153.094" height="63.25" viewBox="0 0 153.094 63.25">
  <defs>
    <style>
      .cls-1 {
        fill: #fff;
        fill-rule: evenodd;
      }
    </style>
  </defs>
  <path d="M153.077,52.162 C152.627,58.933 147.330,63.262 140.192,63.262 C133.320,63.262 130.190,60.100 130.190,57.162 C130.190,55.541 131.437,54.328 132.669,53.968 C132.851,53.927 132.959,53.913 133.055,53.913 C133.339,53.913 133.500,54.042 133.586,54.151 C133.796,54.414 133.727,54.718 133.638,55.102 C133.613,55.210 133.584,55.335 133.555,55.480 C133.374,56.500 133.375,57.994 134.428,59.251 C135.589,60.638 137.788,61.371 140.785,61.371 C145.328,61.371 150.402,57.774 150.679,51.964 C150.882,47.192 148.532,43.846 144.624,43.206 C144.957,44.046 145.160,44.973 145.229,45.973 C145.400,48.559 144.743,50.821 143.380,52.345 C142.276,53.579 140.771,54.274 139.026,54.353 C137.556,54.426 136.366,53.929 135.516,52.958 C134.572,51.880 134.162,50.266 134.393,48.529 C134.829,45.125 137.052,42.479 140.280,41.436 C138.635,40.123 136.256,39.355 133.470,39.252 C130.228,39.122 127.406,39.795 125.037,41.222 C123.831,48.663 121.349,57.237 118.260,57.237 C117.622,57.237 117.026,56.842 116.583,56.123 C115.541,54.430 115.323,50.818 117.305,46.884 C118.786,43.970 120.485,41.828 122.496,40.344 C122.753,37.986 122.944,35.540 123.063,33.047 C122.076,34.307 120.907,35.017 119.711,35.052 C118.707,36.449 117.416,37.216 116.055,37.216 C114.874,37.216 113.785,36.731 112.902,35.812 C111.585,34.440 110.915,32.314 111.016,29.825 C111.184,25.814 112.825,22.809 115.406,21.786 C115.934,21.569 116.455,21.723 116.657,22.127 C117.221,21.473 117.922,21.021 118.767,20.868 C119.499,20.738 120.185,21.034 120.753,21.687 C121.938,23.045 122.396,25.660 121.980,28.683 C121.741,30.326 121.368,31.750 120.867,32.937 C121.801,32.250 122.707,30.485 123.206,28.239 C123.222,26.743 123.217,25.342 123.190,23.958 C123.160,22.904 123.503,22.322 123.796,22.019 C124.093,21.714 124.487,21.539 124.877,21.539 C125.961,21.539 126.014,22.165 126.014,23.271 C126.014,23.712 126.021,24.106 126.029,24.584 C126.033,24.815 126.036,25.068 126.040,25.354 C127.245,22.741 128.787,21.298 130.434,21.298 C131.169,21.298 131.841,21.607 132.377,22.165 C133.482,23.318 133.995,25.604 133.862,28.729 C133.582,34.393 130.363,36.977 127.295,36.977 C126.718,36.977 126.178,36.974 125.660,36.766 C125.603,37.445 125.534,38.322 125.451,38.990 C127.923,37.934 130.791,37.933 134.286,38.159 C138.350,38.406 141.370,40.560 143.263,42.560 L143.499,42.560 C146.274,42.560 148.760,42.784 150.502,44.640 C152.360,46.618 153.274,49.032 153.077,52.162 ZM119.853,46.993 C118.073,50.554 118.149,53.014 118.634,53.799 C118.722,53.942 118.817,54.020 118.914,54.031 C119.498,53.747 120.957,50.415 121.995,43.779 C121.159,44.741 120.441,45.818 119.853,46.993 ZM114.964,29.513 C114.771,27.669 114.956,25.700 115.544,24.102 C114.805,25.171 114.317,27.063 114.223,29.356 C114.123,31.376 114.605,33.148 115.509,34.097 C115.766,34.366 116.180,34.689 116.692,34.689 C116.971,34.689 117.263,34.601 117.550,34.434 C116.168,33.538 115.184,31.704 114.964,29.513 ZM119.183,24.243 C119.129,24.186 119.051,24.117 118.980,24.117 C118.131,24.362 117.065,26.532 117.191,29.056 C117.252,30.468 117.746,32.251 118.917,32.971 C119.349,32.182 119.805,30.885 119.925,28.840 C120.082,26.392 119.651,24.741 119.183,24.243 ZM127.253,34.943 C129.082,34.943 130.324,32.866 130.572,29.386 C130.784,26.147 130.372,24.472 129.915,23.985 C129.792,23.854 129.704,23.854 129.671,23.854 C129.031,23.854 126.976,26.732 125.923,33.526 L125.859,34.553 C126.205,34.819 126.654,34.943 127.253,34.943 ZM142.873,46.544 C142.799,45.286 142.459,44.164 141.861,43.202 C139.195,43.709 137.311,45.601 136.911,48.203 C136.693,49.507 136.901,50.615 137.494,51.329 C137.943,51.870 138.582,52.151 139.395,52.166 L139.501,52.168 C140.269,52.168 140.973,51.852 141.538,51.252 C142.503,50.228 142.991,48.512 142.873,46.544 ZM111.625,38.116 C111.579,38.336 111.354,38.889 110.143,38.739 C107.697,38.476 106.566,35.507 106.691,29.664 C106.721,28.244 106.843,27.064 106.941,26.115 C107.032,25.233 107.134,24.234 107.001,24.036 C106.274,24.074 103.455,27.846 102.425,34.669 C102.376,36.400 101.398,36.877 100.828,36.877 C99.791,36.877 99.607,36.435 99.607,35.189 C99.607,33.732 99.623,33.195 99.653,32.113 C99.673,31.398 99.700,30.443 99.734,28.816 C99.808,26.076 99.983,23.425 100.255,20.925 C98.877,21.159 97.380,21.174 95.881,20.965 C91.617,20.397 90.189,17.655 90.275,15.277 C90.379,13.765 91.701,12.904 92.563,12.689 C92.738,12.651 92.853,12.636 92.952,12.636 C93.261,12.636 93.422,12.795 93.492,12.890 C93.698,13.174 93.600,13.472 93.453,13.923 L93.371,14.173 C93.187,14.862 93.207,15.644 93.435,16.354 C93.558,16.627 93.822,17.013 94.268,17.013 C94.577,17.013 94.936,16.829 95.252,16.509 C95.922,15.831 96.314,14.682 96.299,13.435 C96.258,10.704 94.693,9.102 91.890,8.922 C91.709,8.910 91.530,8.905 91.351,8.905 C88.823,8.905 86.099,10.180 85.714,13.030 C85.226,16.756 88.361,18.655 91.679,20.664 L92.054,20.891 C95.474,23.002 99.097,25.646 98.826,30.341 C98.520,35.351 94.063,39.128 88.457,39.128 C87.762,39.128 87.058,39.068 86.366,38.949 C79.481,37.761 77.315,32.418 77.552,28.204 C77.658,26.688 78.139,24.565 79.836,23.027 C80.433,22.482 82.265,21.884 82.857,21.799 C83.580,21.694 83.767,22.006 83.843,22.181 C84.030,22.611 83.710,23.040 83.336,23.441 C81.371,25.363 80.509,26.875 80.243,28.851 C80.004,30.739 80.513,32.568 81.675,33.994 C82.885,35.480 84.730,36.390 86.871,36.558 C91.079,36.884 95.030,34.360 95.413,31.226 C95.885,27.406 92.956,25.097 89.650,22.878 L88.955,22.421 C85.496,20.148 81.918,17.797 82.303,13.763 C82.680,9.176 87.381,6.772 91.831,6.772 C91.953,6.772 92.074,6.774 92.193,6.778 C94.474,6.863 96.293,7.589 97.456,8.878 C98.498,10.035 98.988,11.591 98.869,13.376 C98.750,15.744 97.600,17.841 95.955,18.852 C96.236,18.952 96.533,19.031 96.845,19.087 C98.055,19.314 99.306,19.286 100.461,19.010 C101.665,10.175 104.178,4.487 106.894,4.487 C107.513,4.487 108.103,4.895 108.556,5.634 C109.729,7.547 109.964,11.354 108.145,14.928 C106.947,17.325 105.225,19.062 103.027,20.090 C102.755,22.246 102.601,24.571 102.566,27.017 C104.003,23.892 106.067,21.285 108.209,21.285 C108.720,21.285 109.138,21.457 109.452,21.795 C110.344,22.760 110.225,24.904 109.937,28.611 C109.403,35.123 110.133,36.796 110.839,37.053 C111.700,37.435 111.658,37.962 111.625,38.116 ZM105.811,14.732 C107.268,11.818 107.084,9.091 106.627,8.058 C106.493,7.754 106.369,7.659 106.335,7.650 C105.790,7.896 104.321,11.460 103.346,17.735 C104.355,16.997 105.181,15.990 105.811,14.732 ZM76.765,29.025 C73.835,50.929 71.037,53.463 69.186,53.463 C68.562,53.463 68.010,53.148 67.590,52.552 C66.503,51.008 66.478,47.881 67.528,44.946 C68.791,41.371 70.686,38.131 73.159,35.318 L73.188,35.040 C72.319,36.377 71.356,37.089 70.374,37.089 C69.387,37.089 67.717,36.595 66.794,33.551 C65.293,36.168 63.319,37.641 61.254,37.641 C59.177,37.641 57.349,36.347 56.340,34.251 C55.539,36.178 54.429,38.023 53.111,38.023 C52.029,38.023 51.198,36.750 50.814,34.608 C49.863,36.198 48.735,37.111 47.556,37.214 C47.494,37.219 47.440,37.221 47.386,37.221 C46.150,37.221 44.720,36.153 43.992,34.094 C42.777,36.297 41.398,37.534 40.116,37.534 C38.431,37.534 36.797,35.531 35.835,32.406 C34.761,35.014 33.102,37.514 31.261,37.514 C30.558,37.514 29.837,37.144 29.176,36.444 C27.655,34.832 26.002,30.819 26.350,24.810 C26.867,16.500 29.904,4.912 33.678,4.912 C33.964,4.912 34.379,5.005 34.735,5.452 C36.028,7.080 35.503,12.577 34.717,15.960 C33.662,20.268 31.366,25.352 29.605,28.233 C29.888,32.978 31.011,35.113 31.727,35.113 C32.494,35.113 34.159,32.447 35.043,28.261 C34.925,26.967 34.905,25.610 34.985,24.224 C35.527,15.509 38.707,3.356 42.655,3.356 C42.950,3.356 43.378,3.452 43.745,3.915 C45.097,5.617 44.545,11.377 43.721,14.924 C42.614,19.446 40.202,24.786 38.353,27.810 C38.650,32.813 39.844,35.065 40.606,35.065 C41.182,35.065 42.529,33.425 43.588,29.905 C44.243,23.848 47.781,21.709 50.608,21.709 C52.143,21.709 53.010,22.286 53.468,22.771 C54.051,23.389 54.342,24.239 54.288,25.166 C54.158,26.171 52.639,27.057 51.888,27.197 C51.347,27.313 51.083,27.095 50.992,26.964 C50.770,26.645 50.897,26.302 51.108,25.735 L51.158,25.600 C51.436,24.701 51.464,24.074 51.234,23.762 C51.072,23.541 50.733,23.430 50.227,23.430 C48.573,23.430 47.187,25.725 46.778,29.141 C46.464,31.684 47.039,33.653 47.707,34.408 C47.865,34.586 48.026,34.689 48.148,34.689 C48.961,34.689 50.073,33.067 50.625,29.967 L50.650,29.652 C50.670,29.377 50.690,29.121 50.752,28.779 C50.940,27.804 52.065,27.362 53.031,27.362 C53.452,27.362 53.734,27.454 53.896,27.639 L54.045,27.812 L54.031,28.090 C53.046,33.259 53.360,35.183 53.598,35.580 C53.885,35.320 54.613,34.110 55.499,30.641 C55.487,30.336 55.484,30.024 55.494,29.700 C55.747,24.657 58.386,20.861 61.636,20.861 C62.547,20.861 63.296,21.170 63.864,21.781 C64.984,22.991 64.934,24.910 64.892,25.470 C64.760,26.468 63.238,27.269 62.492,27.408 C61.880,27.543 61.677,27.322 61.588,27.194 C61.384,26.898 61.500,26.589 61.676,26.122 L61.761,25.896 C62.141,24.825 62.317,23.438 61.914,22.867 C61.828,22.744 61.664,22.581 61.254,22.581 C59.984,22.581 58.863,25.483 58.701,29.187 C58.627,31.366 59.182,33.288 60.186,34.326 C60.684,34.841 61.274,35.113 61.891,35.113 C64.287,35.113 65.616,32.033 66.208,30.129 C66.064,28.189 66.127,25.893 66.398,23.302 C66.528,22.169 67.976,21.749 68.858,21.749 C69.236,21.749 69.482,21.830 69.633,22.004 L69.783,22.177 L69.766,22.448 C68.924,29.130 69.038,33.136 70.107,34.348 C70.312,34.580 70.545,34.689 70.840,34.689 C71.662,34.689 73.211,31.793 73.865,26.559 C73.957,25.172 74.085,23.871 74.206,23.107 C74.333,22.011 75.763,21.595 76.634,21.595 C77.041,21.595 77.303,21.687 77.457,21.883 L77.607,22.075 L77.562,22.371 C77.567,22.371 77.225,25.843 76.765,29.025 ZM69.783,45.076 C68.800,47.721 68.949,49.379 69.414,50.049 C69.536,50.224 69.655,50.292 69.725,50.299 C70.288,50.072 71.515,46.845 72.630,39.166 C71.507,41.037 70.506,43.107 69.783,45.076 ZM32.430,16.066 C33.411,12.291 33.360,9.097 33.070,8.218 C32.036,9.609 29.980,17.899 29.621,24.064 C30.769,21.435 31.875,18.316 32.430,16.066 ZM41.368,15.048 C42.420,11.000 42.345,7.613 42.024,6.749 C40.936,8.108 38.721,17.005 38.362,23.575 C39.588,20.786 40.777,17.445 41.368,15.048 ZM10.138,17.673 C9.618,19.256 9.265,20.828 9.060,22.467 C8.481,27.187 9.309,31.332 11.275,33.555 C12.356,34.777 13.729,35.396 15.357,35.397 C15.357,35.397 15.357,35.397 15.357,35.397 C15.449,35.397 15.541,35.395 15.634,35.390 C19.783,35.187 21.184,30.940 21.650,28.426 L21.782,25.878 C21.860,23.755 23.168,23.590 23.567,23.590 C23.884,23.590 24.787,23.724 24.787,24.317 C24.331,30.905 23.669,36.034 22.763,40.001 C27.727,40.347 33.770,41.306 39.069,42.208 C43.472,42.951 48.483,43.708 52.249,43.708 C55.472,43.708 57.408,43.162 58.004,42.086 C58.124,41.882 58.196,41.728 58.248,41.613 C58.352,41.390 58.509,41.051 58.911,41.051 C59.157,41.051 59.344,41.191 59.581,41.369 C60.428,41.954 61.008,42.968 61.046,43.941 C61.069,44.535 60.909,45.398 60.017,46.122 C59.123,46.869 57.661,47.235 55.551,47.235 C51.882,47.235 46.837,46.161 41.496,45.025 C40.515,44.816 39.532,44.606 38.557,44.404 C32.085,43.082 26.596,42.307 22.232,42.098 C20.651,47.454 18.405,50.223 15.184,50.799 C14.863,50.852 14.540,50.878 14.216,50.878 C12.115,50.878 10.066,49.793 8.997,48.113 C8.135,46.758 8.036,45.208 8.717,43.749 C9.900,41.120 13.215,39.893 19.145,39.893 C19.493,39.893 19.847,39.897 20.209,39.905 C20.536,38.492 20.807,36.911 21.032,35.116 C19.474,36.733 17.491,37.634 15.213,37.741 L14.912,37.746 C12.375,37.746 10.160,36.771 8.503,34.925 C6.085,32.230 5.008,27.834 5.547,22.865 C5.764,20.868 6.175,19.020 6.771,17.359 C4.283,16.768 2.239,15.492 1.106,13.811 C0.102,12.321 -0.207,10.564 0.188,8.589 C1.501,2.026 9.924,-0.012 12.844,-0.012 C13.362,-0.012 13.739,0.044 13.995,0.159 C14.373,0.339 15.353,0.805 15.190,1.526 C15.097,1.939 14.662,2.185 14.027,2.185 C13.715,2.185 13.385,2.124 13.098,2.015 C13.054,1.998 12.884,1.945 12.472,1.945 C10.330,1.945 3.814,3.547 2.896,8.452 C2.261,11.801 4.766,14.275 7.677,15.098 C10.250,9.638 14.841,5.755 19.465,5.159 C21.698,4.859 23.515,5.454 24.415,6.794 C25.131,7.862 25.202,9.301 24.610,10.743 C23.074,14.514 16.761,17.521 10.138,17.673 ZM12.302,44.084 C11.668,45.129 11.583,46.228 12.071,47.094 C12.528,47.906 13.399,48.390 14.401,48.390 C14.762,48.390 15.129,48.326 15.493,48.201 C17.213,47.583 18.614,45.528 19.655,42.086 C14.567,42.170 12.843,43.207 12.302,44.084 ZM21.157,8.129 C20.826,7.618 20.160,7.512 19.660,7.512 C19.404,7.512 19.123,7.539 18.824,7.593 C16.057,8.120 12.988,11.209 11.033,15.378 C14.987,15.065 19.728,13.083 21.037,10.339 C21.437,9.442 21.483,8.632 21.157,8.129 Z" class="cls-1"/>
</svg>
